svgs/duotone/vector-circle.svg

<svg xmlns="http://www.w3.org/2000/svg" viewBox="0 0 512 512"><!--! Font Awesome Pro 6.5.1 by @fontawesome - https://fontawesome.com License - https://fontawesome.com/license (Commercial License) Copyright 2023 Fonticons, Inc. --><defs><style>.fa-secondary{opacity:.4}</style></defs><path class="fa-secondary" d="M41.3 192C62.8 119.8 119.8 62.8 192 41.3V96c0 4.3 .9 8.5 2.4 12.3c-38.9 16.2-70 47.3-86.2 86.2c-3.8-1.6-7.9-2.4-12.3-2.4H41.3zm0 128H96c4.3 0 8.5-.9 12.3-2.4c16.2 38.9 47.3 70 86.2 86.2c-1.6 3.8-2.4 7.9-2.4 12.3v54.7C119.8 449.2 62.8 392.2 41.3 320zm429.4 0C449.2 392.2 392.2 449.2 320 470.7V416c0-4.3-.9-8.5-2.4-12.3c38.9-16.2 70-47.3 86.2-86.2c3.8 1.6 7.9 2.4 12.3 2.4h54.7zm0-128H416c-4.3 0-8.5 .9-12.3 2.4c-16.2-38.9-47.3-70-86.2-86.2c1.6-3.8 2.4-7.9 2.4-12.3V41.3C392.2 62.8 449.2 119.8 470.7 192z"/><path class="fa-primary" d="M240 80h32V48H240V80zM192 32c0-17.7 14.3-32 32-32h64c17.7 0 32 14.3 32 32V96c0 17.7-14.3 32-32 32H224c-17.7 0-32-14.3-32-32V32zM48 272H80V240H48v32zM0 224c0-17.7 14.3-32 32-32H96c17.7 0 32 14.3 32 32v64c0 17.7-14.3 32-32 32H32c-17.7 0-32-14.3-32-32V224zM240 432v32h32V432H240zm-16-48h64c17.7 0 32 14.3 32 32v64c0 17.7-14.3 32-32 32H224c-17.7 0-32-14.3-32-32V416c0-17.7 14.3-32 32-32zM432 272h32V240H432v32zm-48-48c0-17.7 14.3-32 32-32h64c17.7 0 32 14.3 32 32v64c0 17.7-14.3 32-32 32H416c-17.7 0-32-14.3-32-32V224z"/></svg>

<svg xmlns="http://www.w3.org/2000/svg" viewBox="0 0 512 512"><!--! Font Awesome Pro 6.1.1 by @fontawesome - https://fontawesome.com License - https://fontawesome.com/license (Commercial License) Copyright 2022 Fonticons, Inc. --><defs><style>.fa-secondary{opacity:.4}</style></defs><path class="fa-primary" d="M192 32C192 14.33 206.3 0 224 0H288C305.7 0 320 14.33 320 32V96C320 113.7 305.7 128 288 128H224C206.3 128 192 113.7 192 96V32zM272 80V48H240V80H272zM0 224C0 206.3 14.33 192 32 192H96C113.7 192 128 206.3 128 224V288C128 305.7 113.7 320 96 320H32C14.33 320 0 305.7 0 288V224zM80 272V240H48V272H80zM288 384C305.7 384 320 398.3 320 416V480C320 497.7 305.7 512 288 512H224C206.3 512 192 497.7 192 480V416C192 398.3 206.3 384 224 384H288zM240 432V464H272V432H240zM384 224C384 206.3 398.3 192 416 192H480C497.7 192 512 206.3 512 224V288C512 305.7 497.7 320 480 320H416C398.3 320 384 305.7 384 288V224zM464 272V240H432V272H464z"/><path class="fa-secondary" d="M41.28 191.1C62.78 119.8 119.8 62.78 192 41.28V95.1C192 100.3 192.9 104.5 194.4 108.3C155.6 124.5 124.5 155.6 108.3 194.4C104.5 192.9 100.3 191.1 96 191.1H41.28zM96 319.1C100.3 319.1 104.5 319.1 108.3 317.6C124.5 356.4 155.6 387.5 194.4 403.7C192.9 407.5 192 411.7 192 416V470.7C119.8 449.2 62.78 392.2 41.28 319.1H96zM470.7 319.1C449.2 392.2 392.2 449.2 320 470.7V416C320 411.7 319.1 407.5 317.6 403.7C356.4 387.5 387.5 356.4 403.7 317.6C407.5 319.1 411.7 319.1 416 319.1H470.7zM470.7 191.1H416C411.7 191.1 407.5 192.9 403.7 194.4C387.5 155.6 356.4 124.5 317.6 108.3C319.1 104.5 320 100.3 320 95.1V41.28C392.2 62.78 449.2 119.8 470.7 191.1z"/></svg>
